assets/Sleeping face/Flat/sleeping_face_flat.svg

<svg width="32" height="32" viewBox="0 0 32 32" fill="none" xmlns="http://www.w3.org/2000/svg">
<path d="M15.9989 29.9978C25.3333 29.9978 29.9978 23.7303 29.9978 15.9989C29.9978 8.26751 25.3333 2 15.9989 2C6.66443 2 2 8.26751 2 15.9989C2 23.7303 6.66443 29.9978 15.9989 29.9978Z" fill="#FFB02E"/>
<path d="M7.70711 16.2929C7.31658 15.9024 6.68342 15.9024 6.29289 16.2929C5.90237 16.6834 5.90237 17.3166 6.29289 17.7071C6.81756 18.2318 8.14021 19 10 19C11.8598 19 13.1824 18.2318 13.7071 17.7071C14.0976 17.3166 14.0976 16.6834 13.7071 16.2929C13.3166 15.9024 12.6834 15.9024 12.2929 16.2929C12.1509 16.4349 11.3402 17 10 17C8.65979 17 7.8491 16.4349 7.70711 16.2929Z" fill="#402A32"/>
<path d="M19.7071 16.2929C19.3166 15.9024 18.6834 15.9024 18.2929 16.2929C17.9024 16.6834 17.9024 17.3166 18.2929 17.7071C18.8176 18.2318 20.1402 19 22 19C23.8598 19 25.1824 18.2318 25.7071 17.7071C26.0976 17.3166 26.0976 16.6834 25.7071 16.2929C25.3166 15.9024 24.6834 15.9024 24.2929 16.2929C24.1509 16.4349 23.3402 17 22 17C20.6598 17 19.8491 16.4349 19.7071 16.2929Z" fill="#402A32"/>
<path d="M14 24C14 22.8954 14.8954 22 16 22C17.1046 22 18 22.8954 18 24C18 25.1046 17.1046 26 16 26C14.8954 26 14 25.1046 14 24Z" fill="#BB1D80"/>
<path d="M28.78 2.37425C29.0244 2.67888 29.0691 3.09789 28.8944 3.44719L26.8668 7.50251L28.7575 7.02984C29.2933 6.89589 29.8362 7.22165 29.9701 7.75744C30.1041 8.29324 29.7783 8.83617 29.2425 8.97012L25.2425 9.97012C24.8637 10.0648 24.4643 9.93034 24.22 9.62571C23.9756 9.32108 23.9309 8.90207 24.1056 8.55276L26.1332 4.49745L24.2425 4.97012C23.7067 5.10407 23.1638 4.77831 23.0299 4.24251C22.8959 3.70672 23.2217 3.16378 23.7575 3.02984L27.7575 2.02984C28.1363 1.93512 28.5357 2.06962 28.78 2.37425Z" fill="#00A6ED"/>
<path d="M19 6.5C19 6.22386 19.2239 6 19.5 6H22.5C22.6894 6 22.8625 6.107 22.9472 6.27639C23.0319 6.44579 23.0136 6.64849 22.9 6.8L20.5 10H22.5C22.7761 10 23 10.2239 23 10.5C23 10.7761 22.7761 11 22.5 11H19.5C19.3106 11 19.1375 10.893 19.0528 10.7236C18.9681 10.5542 18.9864 10.3515 19.1 10.2L21.5 7H19.5C19.2239 7 19 6.77614 19 6.5Z" fill="#00A6ED"/>
<path d="M14.6581 8.02567C14.3962 7.93835 14.113 8.07993 14.0257 8.3419C13.9383 8.60387 14.0799 8.88703 14.3419 8.97436L16.281 9.62072L13.7519 11.0659C13.5807 11.1637 13.483 11.3531 13.5024 11.5493C13.5219 11.7455 13.6548 11.912 13.8419 11.9744L16.8419 12.9744C17.1039 13.0617 17.387 12.9201 17.4744 12.6581C17.5617 12.3962 17.4201 12.113 17.1581 12.0257L15.219 11.3793L17.7481 9.93414C17.9193 9.8363 18.017 9.64698 17.9976 9.45074C17.9781 9.25451 17.8452 9.08803 17.6581 9.02567L14.6581 8.02567Z" fill="#00A6ED"/>
</svg>

<svg xmlns="http://www.w3.org/2000/svg" width="32" height="32" fill="none"><path fill="#FFB02E" d="M15.999 29.998c9.334 0 13.999-6.268 13.999-14 0-7.73-4.665-13.998-14-13.998C6.665 2 2 8.268 2 15.999c0 7.731 4.664 13.999 13.999 13.999Z"/><path fill="#402A32" d="M7.707 16.293a1 1 0 0 0-1.414 1.414C6.818 18.232 8.14 19 10 19c1.86 0 3.182-.768 3.707-1.293a1 1 0 0 0-1.414-1.414C12.15 16.435 11.34 17 10 17c-1.34 0-2.15-.565-2.293-.707ZM19.707 16.293a1 1 0 0 0-1.414 1.414C18.818 18.232 20.14 19 22 19c1.86 0 3.182-.768 3.707-1.293a1 1 0 0 0-1.414-1.414C24.15 16.435 23.34 17 22 17c-1.34 0-2.15-.565-2.293-.707Z"/><path fill="#BB1D80" d="M14 24a2 2 0 1 1 4 0 2 2 0 0 1-4 0Z"/><path fill="#00A6ED" d="M28.78 2.374a1 1 0 0 1 .114 1.073l-2.027 4.056 1.89-.473a1 1 0 1 1 .485 1.94l-4 1a1 1 0 0 1-1.136-1.417l2.027-4.056-1.89.473a1 1 0 1 1-.485-1.94l4-1a1 1 0 0 1 1.022.344ZM19 6.5a.5.5 0 0 1 .5-.5h3a.5.5 0 0 1 .4.8L20.5 10h2a.5.5 0 0 1 0 1h-3a.5.5 0 0 1-.4-.8L21.5 7h-2a.5.5 0 0 1-.5-.5ZM14.658 8.026a.5.5 0 0 0-.316.948l1.939.647-2.53 1.445a.5.5 0 0 0 .09.908l3 1a.5.5 0 0 0 .317-.948l-1.939-.647 2.53-1.445a.5.5 0 0 0-.09-.908l-3-1Z"/></svg>
